icon/hi/folder-remove.svg

<svg viewBox="0 0 20 20" fill="none" xmlns="http://www.w3.org/2000/svg" height="1em" width="1em">
  <path fill-rule="evenodd" d="M4 4C2.89543 4 2 4.89543 2 6V14C2 15.1046 2.89543 16 4 16H16C17.1046 16 18 15.1046 18 14V8C18 6.89543 17.1046 6 16 6H11L9 4H4ZM8 10C7.44772 10 7 10.4477 7 11C7 11.5523 7.44772 12 8 12H12C12.5523 12 13 11.5523 13 11C13 10.4477 12.5523 10 12 10H8Z" fill="#374151"/>
</svg>

<svg width="20" height="20" fill="none" xmlns="http://www.w3.org/2000/svg"><path fill-rule="evenodd" d="M4 4a2 2 0 0 0-2 2v8a2 2 0 0 0 2 2h12a2 2 0 0 0 2-2V8a2 2 0 0 0-2-2h-5L9 4H4Zm4 6a1 1 0 1 0 0 2h4a1 1 0 1 0 0-2H8Z" fill="#374151"/></svg>
